brandFactory_export/1.Light/Reportar_1Light.svg

<?xml version="1.0" encoding="UTF-8"?>
<svg width="24px" height="24px" viewBox="0 0 24 24" version="1.1" xmlns="http://www.w3.org/2000/svg" xmlns:xlink="http://www.w3.org/1999/xlink">
    <title>1.Light/Reportar_1Light</title>
    <g id="Symbols" stroke="none" stroke-width="1" fill="none" fill-rule="evenodd">
        <g id="1.Light/Reportar_1Light" fill="#5CB615" fill-rule="nonzero">
            <path d="M12.8436975,17.7747899 L12.6352941,17.9596639 C12.594958,17.9966387 12.5445378,18.0235294 12.4941176,18.0403361 L7.88907563,19.5630252 C7.74789916,19.610084 7.57983193,19.5731092 7.47226891,19.4621849 C7.36470588,19.3512605 7.32436975,19.189916 7.37478992,19.0453782 L8.91764706,14.4436975 C8.94117647,14.3731092 8.98151261,14.312605 9.03529412,14.2655462 C12.0403361,11.6134454 17.8252101,6.48739496 18.2252101,6.08403361 C18.8504202,5.45882353 19.5260504,5.31428571 20.0168067,5.31428571 C20.0571429,5.31428571 20.097479,5.31428571 20.1344538,5.31764706 C20.7798319,5.34789916 21.4151261,5.62689076 21.8722689,6.08403361 C22.3563025,6.56806723 22.6453782,7.26386555 22.6420458,7.94621849 C22.6386555,8.61176471 22.3697479,9.2302521 21.8621849,9.73109244 C21.6806723,9.91260504 20.2722689,11.1932773 12.8436975,17.7747899 Z M19.5226891,18.8504202 C19.5226891,20.0336134 19.210084,20.9680672 18.594958,21.6268908 C17.9428571,22.3226891 16.9815126,22.6756303 15.7378151,22.6756303 L4.76638655,22.6756303 C3.52268908,22.6756303 2.56134454,22.3226891 1.91260504,21.6268908 C1.29747899,20.9680672 0.98487395,20.0336134 0.98487395,18.8504202 L0.98487395,4.90420168 C0.98487395,2.43361345 2.36302521,1.01848739 4.76638655,1.01848739 L15.7378151,1.01848739 C17.9529412,1.01848739 19.2941176,2.24537815 19.4857143,4.37647059 C18.7529412,4.4907563 18.0840336,4.83697479 17.5294118,5.39159664 C17.2134454,5.70756303 12.5815126,9.81848739 8.38319328,13.5294118 C8.20168067,13.6907563 8.06386555,13.8957983 7.98319328,14.1310924 L6.44033613,18.7361345 C6.27226891,19.2403361 6.4,19.7848739 6.77310924,20.1613445 C7.03865546,20.4235294 7.38487395,20.5714286 7.75798319,20.5714286 C7.90588235,20.5714286 8.05378151,20.5478992 8.19495798,20.5008403 L12.8,18.9781513 C12.9781513,18.9176471 13.1462185,18.8235294 13.2840336,18.6991597 L13.492437,18.5142857 C15.5193277,16.7193277 17.7647059,14.7260504 19.5193277,13.1630252 L19.5193277,18.8504202 L19.5226891,18.8504202 Z M23.6235506,7.94957983 C23.6268908,7.01176471 23.2302521,6.05714286 22.5647059,5.38823529 C22.0033613,4.82689076 21.2537815,4.47731092 20.4672269,4.37310924 C20.2588235,1.6907563 18.4806723,0.0302521008 15.7344538,0.0302521008 L4.76638655,0.0302521008 C1.82521008,0.0302521008 0,1.89579832 0,4.90084034 L0,18.8470588 C0,20.2890756 0.403361345,21.4487395 1.19327731,22.2957983 C2.03697479,23.1966387 3.23697479,23.6537815 4.76638655,23.6537815 L15.7378151,23.6537815 C17.2638655,23.6537815 18.4672269,23.1966387 19.3109244,22.2957983 C20.1042017,21.4487395 20.507563,20.2890756 20.507563,18.8470588 L20.507563,12.302521 C20.507563,12.2991597 20.5042017,12.292437 20.5042017,12.2857143 C21.6201681,11.2907563 22.3966387,10.5882353 22.5546218,10.4336134 C23.2504202,9.74453782 23.6201681,8.88403361 23.6235506,7.94957983 Z" id="Reportar_1Light"></path>
        </g>
    </g>
</svg>

<svg width="24" height="24" viewBox="0 0 24 24" xmlns="http://www.w3.org/2000/svg"><path d="M12.844 17.775l-.209.185a.396.396 0 01-.14.08l-4.606 1.523a.41.41 0 01-.514-.518l1.543-4.601a.405.405 0 01.117-.178c3.005-2.653 8.79-7.779 9.19-8.182.625-.625 1.301-.77 1.792-.77a2.665 2.665 0 011.855.77 2.67 2.67 0 01.77 1.862c-.003.666-.272 1.284-.78 1.785-.181.182-1.59 1.462-9.018 8.044zm6.679 1.075c0 1.184-.313 2.118-.928 2.777-.652.696-1.613 1.049-2.857 1.049H4.766c-1.243 0-2.205-.353-2.853-1.05-.616-.658-.928-1.592-.928-2.776V4.904c0-2.47 1.378-3.886 3.781-3.886h10.972c2.215 0 3.556 1.227 3.748 3.358a3.512 3.512 0 00-1.957 1.016c-.316.316-4.947 4.426-9.146 8.137-.181.162-.32.367-.4.602L6.44 18.736a1.392 1.392 0 001.755 1.765l4.605-1.523c.178-.06.346-.154.484-.279l.208-.185c2.027-1.795 4.273-3.788 6.027-5.351v5.687h.004zm4.1-10.9a3.687 3.687 0 00-1.058-2.562 3.647 3.647 0 00-2.098-1.015C20.26 1.691 18.481.03 15.734.03H4.766C1.826.03 0 1.896 0 4.9v13.947c0 1.442.403 2.602 1.193 3.449.844.9 2.044 1.358 3.573 1.358h10.972c1.526 0 2.73-.457 3.573-1.358.793-.847 1.197-2.007 1.197-3.449v-6.544c0-.004-.004-.01-.004-.017a120.817 120.817 0 002.05-1.852c.696-.69 1.066-1.55 1.07-2.484z" fill="#5CB615" fill-rule="nonzero"/></svg>
